svg/backspace_reverse_outline.svg

<svg xmlns="http://www.w3.org/2000/svg" viewBox="0 0 24 24"><path d="M5 15.59 6.41 17 10 13.41 13.59 17 15 15.59 11.41 12 15 8.41 13.59 7 10 10.59 6.41 7 5 8.41 8.59 12zM2 3a2 2 0 0 0-2 2v14a2 2 0 0 0 2 2h15c.69 0 1.23-.36 1.59-.89L24 12l-5.41-8.12C18.23 3.35 17.69 3 17 3zm0 2h15l4.72 7L17 19H2z"/></svg>

<?xml version="1.0" encoding="UTF-8"?><!DOCTYPE svg PUBLIC "-//W3C//DTD SVG 1.1//EN" "http://www.w3.org/Graphics/SVG/1.1/DTD/svg11.dtd"><svg xmlns="http://www.w3.org/2000/svg" xmlns:xlink="http://www.w3.org/1999/xlink" version="1.1" id="mdi-backspace-reverse-outline" width="24" height="24" viewBox="0 0 24 24"><path d="M5,15.59L6.41,17L10,13.41L13.59,17L15,15.59L11.41,12L15,8.41L13.59,7L10,10.59L6.41,7L5,8.41L8.59,12L5,15.59M2,3A2,2 0 0,0 0,5V19A2,2 0 0,0 2,21H17C17.69,21 18.23,20.64 18.59,20.11L24,12L18.59,3.88C18.23,3.35 17.69,3 17,3H2M2,5H17L21.72,12L17,19H2V5Z" /></svg>
